X:1
T:Title
%%score { ( 1 3 ) | ( 2 4 ) }
L:1/8
M:3/4
K:G
V:1 treble nm="Grand Piano"
V:3 treble 
V:2 bass 
V:4 bass 
V:1
 z2 z2[Q:1/4=100] [DB]>[CA] | [B,G]3 [CA] [DB][G,D] | [G,CE] [G,EG]3 G>c | B4 z2 |[M:2/4] [CA]4 | %5
[M:1/4] [DB]>[CA] |[M:3/4] [B,G]3 [CA] [DB][G,D] | [G,CE] [G,EG]3 G>c | B4 z2 |[M:2/4] [B,DG]4 | %10
[M:1/4] d>d |[M:3/4] d3 B ce | d4 d>d | d3 d d[G^c] |[M:5/8] d-d- d3 |[M:1/4] [Fd]>[Ec] | %16
[M:3/4] B3 [DB] [DA][G,DG] | [G,CE] [CEG]3 G>c | B4 z2 |[M:2/4] [B,DG]4 |[M:4/4] z2 E6 | %21
 c>E z2 B,>B, B,2 | z2 d6 |[M:7/8] z2 d- d- d3- |[M:1/4] d2 | [Fd]>[Ec] | %26
[M:3/4] B3 [DB] [DA][G,DG] | [G,CE] [CEG]3 G>c | B4 z2 |[M:6/4] .[B,DG]6 z6 |] %30
V:2
 z2 z2 [G,,G,]>[G,,G,] | [G,,G,]3 [G,,G,] [G,,G,]B,, | C, C,3 E>^D | %3
 D->[D,D-] [D,D]2 [E,G,^C]>[A,,A,] |[M:2/4] [D,F,]4 |[M:1/4] [G,,G,]>[G,,G,] | %6
[M:3/4] [G,,G,]3 [G,,G,] [G,,G,]B,, | C, C,3 E>^D | [D,G,]2 z2 z2 |[M:2/4] G,,4 | %10
[M:1/4][K:treble] [G,B,G]>[G,B,G] |[M:3/4] [G,B,G]3 [G,DG] [G,EG][G,CG] | %12
 [G,B,G]4 [G,B,G]>[G,B,G] | [F,A,D]3 [G,B,D] [A,F][A,,A,] |[M:5/8] A, z z z2 | %15
[M:1/4] [D,A,]>[D,F,] |[M:3/4] [G,D]3 [G,,G,] [A,,F,]B,, | D, C,3 ^D>D | [D,G,]2 z2 z2 | %19
[M:2/4] G,,4 |[M:4/4] z4 [C,G,]>[C,G,] [C,G,]2 | z4 [G,,G,]>[G,,G,] [G,,G,]2 | %22
 z4 [G,B,]>[G,B,] [F,D]2 |[M:7/8] [E,A,][E,A,] A,2 B, B,C- |[M:1/4] C2 | [D,A,]>[D,F,] | %26
[M:3/4] [G,D]3 [G,,G,] [A,,F,]B,, | D, C,3 ^D>D | [D,G,]2 z2 z2 |[M:6/4] .G,,6 z6 |] %30
V:3
 x6 | x6 | x6 | z z/ G,/ G,2 B>[^CA] |[M:2/4] x4 |[M:1/4] x2 |[M:3/4] x6 | x6 | %8
 z z/ B,/ [DG]2 [CFA]>[CDA] |[M:2/4] x4 |[M:1/4] x2 |[M:3/4] x6 | x6 | x6 |[M:5/8] FG A3 | %15
[M:1/4] x2 |[M:3/4] x6 | x6 | z z/ B,/ [DG]2 [CFA]>[CDA] |[M:2/4] x4 |[M:4/4] G>F z2 C>C C2 | %21
 z2 D6 | B>c z2 G>G A2 |[M:7/8] [G^c][Gc] F2 G GA- |[M:1/4] A2 | x2 |[M:3/4] x6 | x6 | %28
 z z/ B,/ [DG]2 [CFA]>[CDA] |[M:6/4] x12 |] %30
V:4
 x6 | x6 | x6 | [D,G,]2 z2 z2 |[M:2/4] x4 |[M:1/4] x2 |[M:3/4] x6 | x6 | D->[D,D] D,2 D,>D, | %9
[M:2/4] x4 |[M:1/4][K:treble] x2 |[M:3/4] x6 | x6 | x6 |[M:5/8] D,-[D,-B,] [D,C]3 |[M:1/4] x2 | %16
[M:3/4] x6 | x6 | D->[D,D] D,2 D,>D, |[M:2/4] x4 |[M:4/4] x8 | x8 | x8 |[M:7/8] z2 D,- D,- D,3- | %24
[M:1/4] D,2 | x2 |[M:3/4] x6 | x6 | D->[D,D] D,2 D,>D, |[M:6/4] x12 |] %30

